public/avatar/body/178.svg

<svg xmlns:xlink="http://www.w3.org/1999/xlink" height="82" width="84.85" xmlns="http://www.w3.org/2000/svg"><g transform="translate(37.4 42.25)"><use height="38" transform="translate(-11.95 -17.45)" width="32.05" xlink:href="#a"/><use height="38.95" transform="translate(-12.45 -17.95)" width="33.05" xlink:href="#b"/><use height="23.55" transform="translate(-14.4 2.6)" width="38.05" xlink:href="#c"/></g><defs><path d="M27.35 7.4q2.15 4.15 3.55 8.75 1.45 4.7 1.15 9.5-.35 4.95-4.2 8.1-3.8 3.2-8.75 4.05l-2.6.2q-3.6 0-7.05-1.15-4.65-1.6-7.1-5.5Q-.2 27.4.05 23q.2-4.4 2-9.3Q3.85 8.75 7 5.05 10.1 1.3 14.7.1l1.8-.1q1.9.05 3.7.8 4.75 2.05 7.15 6.6" fill="#ad7a4b" fill-rule="evenodd" transform="translate(-.05)" id="d"/><path d="M27.35 7.4Q24.95 2.85 20.2.8 17.55-.3 14.7.1 10.1 1.3 7 5.05q-3.15 3.7-4.95 8.65-1.8 4.9-2 9.3-.25 4.4 2.3 8.35 2.45 3.9 7.1 5.5 4.65 1.55 9.65.95 4.95-.85 8.75-4.05 3.85-3.15 4.2-8.1.3-4.8-1.15-9.5-1.4-4.6-3.55-8.75Z" fill="none" stroke="#170001" stroke-linecap="round" stroke-linejoin="round" transform="translate(.45 .5)" id="e"/><use height="38" width="32.05" xlink:href="#d" id="a"/><use height="38.95" width="33.05" xlink:href="#e" id="b"/><g id="c" fill-rule="evenodd"><path d="m-13.05 14.35.75.4q-.8 1.85-.55 3.75l.15.75q6.6 8.1 14.9 2.1l.95-1.1 1.85.1.05 1.5q3.55 2.7 7.95 2.3l2.45-.6v.8q-5.9 2.1-11.1-1.8l-.1-1.65H3.7q-2.5 4.75-8.65 4.15-10.3-1.3-8.1-10.7" fill="#3e0202" transform="translate(14.4 -2.6)"/><path d="m20.4 6.7.15.4-.15.45-.4.15-.4-.15-.15-.45q0-.25.15-.4.15-.2.4-.2l.4.2m-32.7 8.05.9.45-.8 3.05 1.85 1.45.5-3.85q10.5 4 21.7 1.85l2.25-.5q1.6 6.5-5.75 4.5L7 20.95l-.05-1.55q-4.7.8-9-.75l1.55.8-.25 1.3q-6.35 2.95-11.95-1.5l-.15-.75q-.25-1.9.55-3.75m32.6-2-.35.35q-1 .15-1.6-.75-.35-.65-.3-1.2-1.9 1.7-3.45 3.7l-.35-.25q1.75-1.3 2.15-3.9-5.25.75-1.75-3.35.6-.7 1.25.1l.5.8-.55.9-1.75-.2.9-.05.2-1.1-.75-.05q-.4.45-.4 1.1l.1 1 1.65.15 3.25-5.4.8.25L17.9 9q.75-.6 1.8-.4l.6.1q2.6 1.95 0 4.05m-.2-2.25-.9.35-.1.95.55-.1.9-.7-.65-1.4-.6.5.8.4M8.55 19.7l-.05-1.2q-1.1 1.3-.2 3l.25-1.8m5.9-6.3-.4-.15-.15-.45.15-.4.4-.2.4.2.15.4-.15.45-.4.15M-7.3 6.5q.95 0 1.5.85 1.45 3.1-2.1 3.6l-.9-.4 1.65 4.15-.2-.1q-2-3.35-5.05-5.1l-.5.3v.65q.15 1.3 1.25 1.35l.25-.7-.25-.45-.8-.4q2-.45 1.6 1.5-.35 1.8-1.45.4-3.3-4.4 1.9-3.4l-1.7-3.95.6-.4q1.4 3.85 4.5 5.5l.5-.3.15-1.4-1-.7-.45.5.4.7.6.3-1.45-.05-.35-1.6.65-.8.65-.05m.35 5.5.4.2q.15.15.15.4l-.15.45-.4.15-.4-.15-.15-.45.15-.4.4-.2m-5.1-4.65-.4.15-.4-.15-.15-.45.15-.4.4-.2.4.2q.15.15.15.4l-.15.45" fill="#d80000" transform="translate(14.4 -2.6)"/><path d="m14.1 17.2 1.15-.15.2 6.5-2.45.6q-4.4.4-7.95-2.3L5 20.35l-1.85-.1-.95 1.1q-8.3 6-14.9-2.1 5.6 4.45 11.95 1.5l.25-1.3-1.55-.8q4.3 1.55 9 .75L7 20.95l1.35.75q7.35 2 5.75-4.5" fill="#960000" transform="translate(14.4 -2.6)"/><path d="M-11.4 15.2q.75.3 1.55.65l-.5 3.85-1.85-1.45.8-3.05m19.95 4.5-.25 1.8q-.9-1.7.2-3l.05 1.2" fill="#ff6e6e" transform="translate(14.4 -2.6)"/><path d="m18.9 14.3-.05 1.05 1.55-.8.15-1 .6-.35q2.35 3.15 2.5 7.05-.3.75-1.15 1.25l-1.2.75-.15 1.15q-1.45 3.35-5.6 2.65l-.1-1.7v-.8l-.2-6.5-1.15.15-2.25.5q-11.2 2.15-21.7-1.85-.8-.35-1.55-.65l-.9-.45-.75-.4-.3-1.2.25.15 1.75.7q9 3.9 18.75 3l1.9-.25 2.85-.5 2.95-.85.9-.2-.15 1.15.9-.3.65-.25.6-.6.1-.5v-.1l.8-.3m2.9 6.5.1-.05.7-.7q.2-1.45-.6-2.9l-1.1-2.35-.75.65-1.4.6-.85.3-1.5.65.05 8.2 1.95-.3q.95 0 1.6-.4.65-.4.65-.95l-.35-1.85 1.2-.7.3-.2M11.7 13l-.15.85-4.95.25-10.55-.3-.15-.85 4.35.6L11.7 13" fill="#030a36" transform="translate(14.4 -2.6)"/><path d="m16.75 16.05-.9.3.15-1.15.15-.05-.1.9.4-.95.6-.2-.3 1.15m-4.6.2-2.85.5-1.9.25-5.7-.05-2.45-.3 4.85.05-5.95-.4-3.35-.7 1.5-.25 1.05.05-1.05-.15-.1-.45 6.95.3 2.6-.4-9.65-.6-.05-.3 10.55.3 4.95-.25-.1.6-5.9 1.2 5.65.2 2.35-.15-1.4.55m8-.8 1.65 5.35-.3.2-1.2.7.35 1.85-1.9-7.5 1.4-.6M18.4 24.9l-1.95.3-.05-8.2 1.5-.65q.5 3.8.6 7.55l-.1 1m2.7-3.95-1.9-4.45 1.2 4.7.7-.25m-3.5 3.2-1-6.85.15 7.25.85-.4M-6.7 15.5l-1-.3.45.1.55.2" fill="#037df2" transform="translate(14.4 -2.6)"/><path d="m20.55 13.55-.15 1-1.55.8.05-1.05 1.65-.75M18.1 14.6v.1l-.1.5-.6.6-.65.25.3-1.15 1.05-.3m-3 .8-2.95.85 1.4-.55 1.55-.3M7.4 17q-9.75.9-18.75-3l-1.75-.7 5.4 1.9 1 .3 5.95 1.15 2.45.3 5.7.05m12.75-1.55.75-.65 1.1 2.35q.8 1.45.6 2.9l-.7.7-.1.05-1.65-5.35m.5 8.1q0 .55-.65.95-.65.4-1.6.4l.1-1q-.1-3.75-.6-7.55l.85-.3 1.9 7.5m-9.2-9.1-.25 1.4-5.65-.2 5.9-1.2m-15.15.8 1.05.15-1.05-.05v-.1" fill="#0950b7" transform="translate(14.4 -2.6)"/><path d="m21.1 20.95-.7.25-1.2-4.7 1.9 4.45m-25-6.85 9.65.6-2.6.4-6.95-.3-.1-.7m-1.3 1.5 3.35.7 5.95.4-4.85-.05-5.95-1.15-.55-.2 2.05.3m21.35-.45.3-.05-.4.95.1-.9m1.45 9-.85.4-.15-7.25 1 6.85" fill="#5bbfff" transform="translate(14.4 -2.6)"/><path d="m20.4 6.7-.4-.2q-.25 0-.4.2-.15.15-.15.4l.15.45.4.15.4-.15.15-.45-.15-.4m-1.5 7.6-.8.3-1.05.3-.6.2-.3.05-.15.05-.9.2-1.55.3-2.35.15.25-1.4.1-.6.15-.85.7-7.1q4.35-.5 7.95-3.1 1.6 4.65 1.6 9.6l-.8.8-.6.35-1.65.75m-32-1-.25-.15-1.05-.9q.05-5.1 1.55-9.65 3.05 1.8 6.3 2.75l1.7.4.75 7.2.15.85.05.3.1.7.1.45v.1l-1.5.25-2.05-.3-.45-.1-5.4-1.9m33.2-2.8-.8-.4.6-.5.65 1.4-.9.7-.55.1.1-.95.9-.35m.2 2.25q2.6-2.1 0-4.05l-.6-.1q-1.05-.2-1.8.4l1.95-4.15-.8-.25L15.8 10l-1.65-.15-.1-1q0-.65.4-1.1l.75.05-.2 1.1-.9.05 1.75.2.55-.9-.5-.8q-.65-.8-1.25-.1-3.5 4.1 1.75 3.35-.4 2.6-2.15 3.9l.35.25q1.55-2 3.45-3.7-.05.55.3 1.2.6.9 1.6.75l.35-.35M2.85 9.5q-.25 1.3-1.65 1.8-3.55 1.45-5.4-1.8Q0 12.05 2.1 7.95L6.05 9.5l.3-1q2.1-4 4.35-.6-.45 2.3-2.65 3.05l3.1.25q-2.8 1.85-4.9-.45L2.85 9.5m2.2-2.6-.25.6-.6.25-.6-.25-.25-.6q0-.35.25-.6t.6-.25q.35 0 .6.25l.25.6M8.4 7q-.5 0-.8.35-.35.3-.35.8T7.6 9l.8.3q.5 0 .85-.3l.3-.85-.3-.8Q8.9 7 8.4 7m6.05 6.4.4-.15.15-.45-.15-.4-.4-.2-.4.2-.15.4.15.45.4.15M-7.3 6.5l-.65.05-.65.8.35 1.6L-6.8 9l-.6-.3-.4-.7.45-.5 1 .7-.15 1.4-.5.3q-3.1-1.65-4.5-5.5l-.6.4 1.7 3.95q-5.2-1-1.9 3.4 1.1 1.4 1.45-.4.4-1.95-1.6-1.5l.8.4.25.45-.25.7q-1.1-.05-1.25-1.35V9.8l.5-.3q3.05 1.75 5.05 5.1l.2.1-1.65-4.15.9.4q3.55-.5 2.1-3.6-.55-.85-1.5-.85m.35 5.5-.4.2-.15.4.15.45.4.15.4-.15.15-.45q0-.25-.15-.4l-.4-.2m-5.1-4.65.15-.45q0-.25-.15-.4l-.4-.2-.4.2-.15.4.15.45.4.15.4-.15" transform="translate(14.4 -2.6)"/></g></defs></svg>

<?xml version="1.0" encoding="UTF-8" standalone="no"?>
<svg xmlns:xlink="http://www.w3.org/1999/xlink" height="82.0px" width="84.85px" xmlns="http://www.w3.org/2000/svg">
  <g transform="matrix(1.0, 0.0, 0.0, 1.0, 37.4, 42.25)">
    <use height="38.0" transform="matrix(1.0, 0.0, 0.0, 1.0, -11.95, -17.45)" width="32.05" xlink:href="#sprite0"/>
    <use height="38.95" transform="matrix(1.0, 0.0, 0.0, 1.0, -12.45, -17.95)" width="33.05" xlink:href="#sprite1"/>
    <use height="23.55" transform="matrix(1.0, 0.0, 0.0, 1.0, -14.4, 2.6)" width="38.05" xlink:href="#shape2"/>
  </g>
  <defs>
    <g id="sprite0" transform="matrix(1.0, 0.0, 0.0, 1.0, -0.05, 0.0)">
      <use height="38.0" transform="matrix(1.0, 0.0, 0.0, 1.0, 0.05, 0.0)" width="32.05" xlink:href="#shape0"/>
    </g>
    <g id="shape0" transform="matrix(1.0, 0.0, 0.0, 1.0, -0.05, 0.0)">
      <path d="M27.35 7.4 Q29.5 11.55 30.9 16.15 32.35 20.85 32.05 25.65 31.7 30.6 27.85 33.75 24.05 36.95 19.1 37.8 L16.5 38.0 Q12.9 38.0 9.45 36.85 4.8 35.25 2.35 31.35 -0.2 27.4 0.05 23.0 0.25 18.6 2.05 13.7 3.85 8.75 7.0 5.05 10.1 1.3 14.7 0.1 L16.5 0.0 Q18.4 0.05 20.2 0.8 24.95 2.85 27.35 7.4" fill="#ad7a4b" fill-rule="evenodd" stroke="none"/>
    </g>
    <g id="sprite1" transform="matrix(1.0, 0.0, 0.0, 1.0, 0.45, 0.5)">
      <use height="38.95" transform="matrix(1.0, 0.0, 0.0, 1.0, -0.45, -0.5)" width="33.05" xlink:href="#shape1"/>
    </g>
    <g id="shape1" transform="matrix(1.0, 0.0, 0.0, 1.0, 0.45, 0.5)">
      <path d="M27.35 7.4 Q24.95 2.85 20.2 0.8 17.55 -0.3 14.7 0.1 10.1 1.3 7.0 5.05 3.85 8.75 2.05 13.7 0.25 18.6 0.05 23.0 -0.2 27.4 2.35 31.35 4.8 35.25 9.45 36.85 14.1 38.4 19.1 37.8 24.05 36.95 27.85 33.75 31.7 30.6 32.05 25.65 32.35 20.85 30.9 16.15 29.5 11.55 27.35 7.4 Z" fill="none" stroke="#170001" stroke-linecap="round" stroke-linejoin="round" stroke-width="1.0"/>
    </g>
    <g id="shape2" transform="matrix(1.0, 0.0, 0.0, 1.0, 14.4, -2.6)">
      <path d="M-13.05 14.35 L-12.3 14.75 Q-13.1 16.6 -12.85 18.5 L-12.7 19.25 Q-6.1 27.35 2.2 21.35 L3.15 20.25 5.0 20.35 5.05 21.85 Q8.6 24.55 13.0 24.15 L15.45 23.55 15.45 24.35 Q9.55 26.45 4.35 22.55 L4.25 20.9 3.7 20.9 Q1.2 25.65 -4.95 25.05 -15.25 23.75 -13.05 14.35" fill="#3e0202" fill-rule="evenodd" stroke="none"/>
      <path d="M20.4 6.7 L20.55 7.1 20.4 7.55 20.0 7.7 19.6 7.55 19.45 7.1 Q19.45 6.85 19.6 6.7 19.75 6.5 20.0 6.5 L20.4 6.7 M-12.3 14.75 L-11.4 15.2 -12.2 18.25 -10.35 19.7 -9.85 15.85 Q0.65 19.85 11.85 17.7 L14.1 17.2 Q15.7 23.7 8.35 21.7 L7.0 20.95 6.95 19.4 Q2.25 20.2 -2.05 18.65 L-0.5 19.45 -0.75 20.75 Q-7.1 23.7 -12.7 19.25 L-12.85 18.5 Q-13.1 16.6 -12.3 14.75 M20.3 12.75 L19.95 13.1 Q18.95 13.25 18.35 12.35 18.0 11.7 18.05 11.15 16.15 12.85 14.6 14.85 L14.25 14.6 Q16.0 13.3 16.4 10.7 11.15 11.45 14.65 7.35 15.25 6.65 15.9 7.45 L16.4 8.25 15.85 9.15 14.1 8.95 15.0 8.9 15.2 7.8 14.45 7.75 Q14.05 8.2 14.05 8.85 L14.15 9.85 15.8 10.0 19.05 4.6 19.85 4.85 17.9 9.0 Q18.65 8.4 19.7 8.6 L20.3 8.7 Q22.9 10.65 20.3 12.75 M20.1 10.5 L19.2 10.85 19.1 11.8 19.65 11.7 20.55 11.0 19.9 9.6 19.3 10.1 20.1 10.5 M8.55 19.7 L8.5 18.5 Q7.4 19.8 8.3 21.5 L8.55 19.7 M14.45 13.4 L14.05 13.25 13.9 12.8 14.05 12.4 14.45 12.2 14.85 12.4 15.0 12.8 14.85 13.25 14.45 13.4 M-7.3 6.5 Q-6.35 6.5 -5.8 7.35 -4.35 10.45 -7.9 10.95 L-8.8 10.55 -7.15 14.7 -7.35 14.6 Q-9.35 11.25 -12.4 9.5 L-12.9 9.8 -12.9 10.45 Q-12.75 11.75 -11.65 11.8 L-11.4 11.1 -11.65 10.65 -12.45 10.25 Q-10.45 9.8 -10.85 11.75 -11.2 13.55 -12.3 12.15 -15.6 7.75 -10.4 8.75 L-12.1 4.8 -11.5 4.4 Q-10.1 8.25 -7.0 9.9 L-6.5 9.6 -6.35 8.2 -7.35 7.5 -7.8 8.0 -7.4 8.7 -6.8 9.0 -8.25 8.95 -8.6 7.35 -7.95 6.55 -7.3 6.5 M-6.95 12.0 L-6.55 12.2 Q-6.4 12.35 -6.4 12.6 L-6.55 13.05 -6.95 13.2 -7.35 13.05 -7.5 12.6 -7.35 12.2 -6.95 12.0 M-12.05 7.35 L-12.45 7.5 -12.85 7.35 -13.0 6.9 -12.85 6.5 -12.45 6.3 -12.05 6.5 Q-11.9 6.65 -11.9 6.9 L-12.05 7.35" fill="#d80000" fill-rule="evenodd" stroke="none"/>
      <path d="M14.1 17.2 L15.25 17.05 15.45 23.55 13.0 24.15 Q8.6 24.55 5.05 21.85 L5.0 20.35 3.15 20.25 2.2 21.35 Q-6.1 27.35 -12.7 19.25 -7.1 23.7 -0.75 20.75 L-0.5 19.45 -2.05 18.65 Q2.25 20.2 6.95 19.4 L7.0 20.95 8.35 21.7 Q15.7 23.7 14.1 17.2" fill="#960000" fill-rule="evenodd" stroke="none"/>
      <path d="M-11.4 15.2 Q-10.65 15.5 -9.85 15.85 L-10.35 19.7 -12.2 18.25 -11.4 15.2 M8.55 19.7 L8.3 21.5 Q7.4 19.8 8.5 18.5 L8.55 19.7" fill="#ff6e6e" fill-rule="evenodd" stroke="none"/>
      <path d="M18.9 14.3 L18.85 15.35 20.4 14.55 20.55 13.55 21.15 13.2 Q23.5 16.35 23.65 20.25 23.35 21.0 22.5 21.5 L21.3 22.25 21.15 23.4 Q19.7 26.75 15.55 26.05 L15.45 24.35 15.45 23.55 15.25 17.05 14.1 17.2 11.85 17.7 Q0.65 19.85 -9.85 15.85 -10.65 15.5 -11.4 15.2 L-12.3 14.75 -13.05 14.35 -13.35 13.15 -13.1 13.3 -11.35 14.0 Q-2.35 17.9 7.4 17.0 L9.3 16.75 12.15 16.25 15.1 15.4 16.0 15.2 15.85 16.35 16.75 16.05 17.4 15.8 18.0 15.2 18.1 14.7 18.1 14.6 18.9 14.3 M21.8 20.8 L21.9 20.75 22.6 20.05 Q22.8 18.6 22.0 17.15 L20.9 14.8 20.15 15.45 18.75 16.05 17.9 16.35 16.4 17.0 16.45 25.2 18.4 24.9 Q19.35 24.9 20.0 24.5 20.65 24.1 20.65 23.55 L20.3 21.7 21.5 21.0 21.8 20.8 M11.7 13.0 L11.55 13.85 6.6 14.1 -3.95 13.8 -4.1 12.95 0.25 13.55 11.7 13.0" fill="#030a36" fill-rule="evenodd" stroke="none"/>
      <path d="M16.75 16.05 L15.85 16.35 16.0 15.2 16.15 15.15 16.05 16.05 16.45 15.1 17.05 14.9 16.75 16.05 M12.15 16.25 L9.3 16.75 7.4 17.0 1.7 16.95 -0.75 16.65 4.1 16.7 -1.85 16.3 -5.2 15.6 -3.7 15.35 -2.65 15.4 -3.7 15.25 -3.8 14.8 3.15 15.1 5.75 14.7 -3.9 14.1 -3.95 13.8 6.6 14.1 11.55 13.85 11.45 14.45 5.55 15.65 11.2 15.85 13.55 15.7 12.15 16.25 M20.15 15.45 L21.8 20.8 21.5 21.0 20.3 21.7 20.65 23.55 18.75 16.05 20.15 15.45 M18.4 24.9 L16.45 25.2 16.4 17.0 17.9 16.35 Q18.4 20.15 18.5 23.9 L18.4 24.9 M21.1 20.95 L19.2 16.5 20.4 21.2 21.1 20.95 M17.6 24.15 L16.6 17.3 16.75 24.55 17.6 24.15 M-6.7 15.5 L-7.7 15.2 -7.25 15.3 -6.7 15.5" fill="#037df2" fill-rule="evenodd" stroke="none"/>
      <path d="M20.55 13.55 L20.4 14.55 18.85 15.35 18.9 14.3 20.55 13.55 M18.1 14.6 L18.1 14.7 18.0 15.2 17.4 15.8 16.75 16.05 17.05 14.9 18.1 14.6 M15.1 15.4 L12.15 16.25 13.55 15.7 15.1 15.4 M7.4 17.0 Q-2.35 17.9 -11.35 14.0 L-13.1 13.3 -7.7 15.2 -6.7 15.5 -0.75 16.65 1.7 16.95 7.4 17.0 M20.15 15.45 L20.9 14.8 22.0 17.15 Q22.8 18.6 22.6 20.05 L21.9 20.75 21.8 20.8 20.15 15.45 M20.65 23.55 Q20.65 24.1 20.0 24.5 19.35 24.9 18.4 24.9 L18.5 23.9 Q18.4 20.15 17.9 16.35 L18.75 16.05 20.65 23.55 M11.45 14.45 L11.2 15.85 5.55 15.65 11.45 14.45 M-3.7 15.25 L-2.65 15.4 -3.7 15.35 -3.7 15.25" fill="#0950b7" fill-rule="evenodd" stroke="none"/>
      <path d="M21.1 20.95 L20.4 21.2 19.2 16.5 21.1 20.95 M-3.9 14.1 L5.75 14.7 3.15 15.1 -3.8 14.8 -3.9 14.1 M-5.2 15.6 L-1.85 16.3 4.1 16.7 -0.75 16.65 -6.7 15.5 -7.25 15.3 -5.2 15.6 M16.15 15.15 L16.45 15.1 16.05 16.05 16.15 15.15 M17.6 24.15 L16.75 24.55 16.6 17.3 17.6 24.15" fill="#5bbfff" fill-rule="evenodd" stroke="none"/>
      <path d="M20.4 6.7 L20.0 6.5 Q19.75 6.5 19.6 6.7 19.45 6.85 19.45 7.1 L19.6 7.55 20.0 7.7 20.4 7.55 20.55 7.1 20.4 6.7 M18.9 14.3 L18.1 14.6 17.05 14.9 16.45 15.1 16.15 15.15 16.0 15.2 15.1 15.4 13.55 15.7 11.2 15.85 11.45 14.45 11.55 13.85 11.7 13.0 12.4 5.9 Q16.75 5.4 20.35 2.8 21.95 7.45 21.95 12.4 L21.15 13.2 20.55 13.55 18.9 14.3 M-13.1 13.3 L-13.35 13.15 -14.4 12.25 Q-14.35 7.15 -12.85 2.6 -9.8 4.4 -6.55 5.35 L-4.85 5.75 -4.1 12.95 -3.95 13.8 -3.9 14.1 -3.8 14.8 -3.7 15.25 -3.7 15.35 -5.2 15.6 -7.25 15.3 -7.7 15.2 -13.1 13.3 M20.1 10.5 L19.3 10.1 19.9 9.6 20.55 11.0 19.65 11.7 19.1 11.8 19.2 10.85 20.1 10.5 M20.3 12.75 Q22.9 10.65 20.3 8.7 L19.7 8.6 Q18.65 8.4 17.9 9.0 L19.85 4.85 19.05 4.6 15.8 10.0 14.15 9.85 14.05 8.85 Q14.05 8.2 14.45 7.75 L15.2 7.8 15.0 8.9 14.1 8.95 15.85 9.15 16.4 8.25 15.9 7.45 Q15.25 6.65 14.65 7.35 11.15 11.45 16.4 10.7 16.0 13.3 14.25 14.6 L14.6 14.85 Q16.15 12.85 18.05 11.15 18.0 11.7 18.35 12.35 18.95 13.25 19.95 13.1 L20.3 12.75 M2.85 9.5 Q2.6 10.8 1.2 11.3 -2.35 12.75 -4.2 9.5 0.0 12.05 2.1 7.95 L6.05 9.5 6.35 8.5 Q8.45 4.5 10.7 7.9 10.25 10.2 8.05 10.95 L11.15 11.2 Q8.35 13.05 6.25 10.75 L2.85 9.5 M5.05 6.9 L4.8 7.5 4.2 7.75 3.6 7.5 3.35 6.9 Q3.35 6.55 3.6 6.3 3.85 6.05 4.2 6.05 4.55 6.05 4.8 6.3 L5.05 6.9 M8.4 7.0 Q7.9 7.0 7.6 7.35 7.25 7.65 7.25 8.15 7.25 8.65 7.6 9.0 L8.4 9.3 Q8.9 9.3 9.25 9.0 L9.55 8.15 9.25 7.35 Q8.9 7.0 8.4 7.0 M14.45 13.4 L14.85 13.25 15.0 12.8 14.85 12.4 14.45 12.2 14.05 12.4 13.9 12.8 14.05 13.25 14.45 13.4 M-7.3 6.5 L-7.95 6.55 -8.6 7.35 -8.25 8.95 -6.8 9.0 -7.4 8.7 -7.8 8.0 -7.35 7.5 -6.35 8.2 -6.5 9.6 -7.0 9.9 Q-10.1 8.25 -11.5 4.4 L-12.1 4.8 -10.4 8.75 Q-15.6 7.75 -12.3 12.15 -11.2 13.55 -10.85 11.75 -10.45 9.8 -12.45 10.25 L-11.65 10.65 -11.4 11.1 -11.65 11.8 Q-12.75 11.75 -12.9 10.45 L-12.9 9.8 -12.4 9.5 Q-9.35 11.25 -7.35 14.6 L-7.15 14.7 -8.8 10.55 -7.9 10.95 Q-4.35 10.45 -5.8 7.35 -6.35 6.5 -7.3 6.5 M-6.95 12.0 L-7.35 12.2 -7.5 12.6 -7.35 13.05 -6.95 13.2 -6.55 13.05 -6.4 12.6 Q-6.4 12.35 -6.55 12.2 L-6.95 12.0 M-12.05 7.35 L-11.9 6.9 Q-11.9 6.65 -12.05 6.5 L-12.45 6.3 -12.85 6.5 -13.0 6.9 -12.85 7.35 -12.45 7.5 -12.05 7.35" fill="#000000" fill-rule="evenodd" stroke="none"/>
    </g>
  </defs>
</svg>
